X: 21352
T: IRISH SETT (tune 5)
C:
%R: reel
B: Elias Howe "The Musician's Companion" 1843 p.135 #2
S: http://imslp.org/wiki/The_Musician's_Companion_(Howe,_Elias)
Z: 2015 John Chambers <jc:trillian.mit.edu>
M: C|
L: 1/8
K: D
% - - - - - - - - - - - - - - - - - - - - - - - - - - - - -
V: 1 name="5"
(3(GFE) |\
D2D2 FDAF | dFAF dFAF | E/E/E EE GEBG | eGBG eG FE |\
D/D/D DD FDAF | dFAF dFAF | Egfg fedc | d2d2 d2 H|]
g2 |\
fd d2 fdad | fddf a2ed | cAA2 cAeA | cAAc e2fg |\
fdd2 fdad | fddf a2A2 | Bgfg fedc | d2d2 "^D.C."d2 :|
% - - - - - - - - - - Dance description - - - - - - - - - -
%%begintext align
%% First two ladies forward and back,
%% cross over,
%% balance each others partners and turn,
%% chassa across four,
%% two gentlemen forward and back,
%% cross over,
%% balance partners and turn,
%% forward four,
%% half right and left to place.
%%endtext
% - - - - - - - - - - - - - - - - - - - - - - - - - - - - -
%%sep 1 1 300

%%sep 1 1 500

